X:1
T:Where Flamingoes Fly
T:Where Flamingoes Fly
T:Harold Courtlander, El Thea, John Benson Brooks
C:Harold Courlander, El Thea, John Benson Brooks
Z:All Rights Reserved
L:1/8
M:4/4
K:C
V:1 treble 
%%MIDI program 0
V:1
 z4 z c2 A |:"Am" c2 AA-"Am#5" A4- |"Am6" A4 z"Am#5" c2 A |"Am6" B2 AG-"Am#5" G A3- | %4
w: Walk the|wat- er- front *|* hear the|sea- gulls cry. * *|
w: |send for me *|* If he|don't I'll die. * *|
"Am6" A4 z"Am#5" c2 A |"Am7" c2 AE"C9" GAGE |"F6" D4"Dm7" C2"G7b9" D2 |"C6" E2 C2 C4- |1 %8
w: * Watch that|boat take my ba- by far a-|way where fla-|min- goes fly.|
w: * Thou- sand|miles to my bab- by to the|place where fla-|min- goes fly.|
 C4 z c2 A :|2"C9""C+9" C8 ||"F7" (3G2 F2 C2 _E3 C |"C6" =E G3- G4 |"F7" (3G2 F2 C2 (3G2 F2 C2 | %13
w: * Said he'd||"You broke the law." they|told him. *|"Got- ta have pass- port to|
w: |||||
"C6" E8 |"F7" (3c2 A2 G2 (3A2 G2 A2 |"Am7" (3cAc- c4 AB |"F9" (3c2 A2 B2 (3c2 d3 c | %17
w: stay.|You're ship- pin' back to the|is * lands * on a|freight- er that's leav- in' to|
w: ||||
"E7" B E3 z c2 A |"Am" c2 AA-"Am#5" A4- |"Am6" A4 z"Am#5" c2 A |"Am6" B2 AG-"Am#5" G A3- | %21
w: day. * Now my|bab- by's gone. *|* Hear the|wa- ter sigh. * *|
w: ||||
"Am6" A4 z"Am#5" c2 A |"Am7" c2 AE"C9" GAGE |"F6" D4"Dm7" c2"G7b9" d2 |"C6" e2 c2"Ab9" c4- | %25
w: * Took my|heart a- long with him to the|place where fla-|min- goes fly.|
w: ||||
"C" c6 z2 |] %26
w: |
w: |

